assets/warm_tone.cube
TITLE "Warm Tone"
LUT_3D_SIZE 8

0.080000 0.030000 0.000000
0.220294 0.029146 0.000000
0.360589 0.028291 0.000000
0.500883 0.027437 0.000000
0.641177 0.026583 0.000000
0.781471 0.025729 0.000000
0.921766 0.024874 0.000000
1.000000 0.024020 0.000000
0.074969 0.171180 0.000000
0.215263 0.170326 0.000000
0.355557 0.169471 0.000000
0.495851 0.168617 0.000000
0.636146 0.167763 0.000000
0.776440 0.166909 0.000000
0.916734 0.166054 0.000000
1.000000 0.165200 0.000000
0.069937 0.312360 0.000000
0.210231 0.311506 0.000000
0.350526 0.310651 0.000000
0.490820 0.309797 0.000000
0.631114 0.308943 0.000000
0.771409 0.308089 0.000000
0.911703 0.307234 0.000000
1.000000 0.306380 0.000000
0.064906 0.453540 0.000000
0.205200 0.452686 0.000000
0.345494 0.451831 0.000000
0.485789 0.450977 0.000000
0.626083 0.450123 0.000000
0.766377 0.449269 0.000000
0.906671 0.448414 0.000000
1.000000 0.447560 0.000000
0.059874 0.594720 0.000000
0.200169 0.593866 0.000000
0.340463 0.593011 0.000000
0.480757 0.592157 0.000000
0.621051 0.591303 0.000000
0.761346 0.590449 0.000000
0.901640 0.589594 0.000000
1.000000 0.588740 0.000000
0.054843 0.735900 0.000000
0.195137 0.735046 0.000000
0.335431 0.734191 0.000000
0.475726 0.733337 0.000000
0.616020 0.732483 0.000000
0.756314 0.731629 0.000000
0.896609 0.730774 0.000000
1.000000 0.729920 0.000000
0.049811 0.877080 0.000000
0.190106 0.876226 0.000000
0.330400 0.875371 0.000000
0.470694 0.874517 0.000000
0.610989 0.873663 0.000000
0.751283 0.872809 0.000000
0.891577 0.871954 0.000000
1.000000 0.871100 0.000000
0.044780 1.000000 0.000000
0.185074 1.000000 0.000000
0.325369 1.000000 0.000000
0.465663 1.000000 0.000000
0.605957 1.000000 0.000000
0.746251 1.000000 0.000000
0.886546 1.000000 0.000000
1.000000 1.000000 0.000000
0.079023 0.029674 0.083671
0.219317 0.028820 0.085807
0.359611 0.027966 0.087943
0.499906 0.027111 0.090079
0.640200 0.026257 0.092214
0.780494 0.025403 0.094350
0.920789 0.024549 0.096486
1.000000 0.023694 0.098621
0.073991 0.170854 0.087864
0.214286 0.170000 0.090000
0.354580 0.169146 0.092136
0.494874 0.168291 0.094271
0.635169 0.167437 0.096407
0.775463 0.166583 0.098543
0.915757 0.165729 0.100679
1.000000 0.164874 0.102814
0.068960 0.312034 0.092057
0.209254 0.311180 0.094193
0.349549 0.310326 0.096329
0.489843 0.309471 0.098464
0.630137 0.308617 0.100600
0.770431 0.307763 0.102736
0.910726 0.306909 0.104871
1.000000 0.306054 0.107007
0.063929 0.453214 0.096250
0.204223 0.452360 0.098386
0.344517 0.451506 0.100521
0.484811 0.450651 0.102657
0.625106 0.449797 0.104793
0.765400 0.448943 0.106929
0.905694 0.448089 0.109064
1.000000 0.447234 0.111200
0.058897 0.594394 0.100443
0.199191 0.593540 0.102579
0.339486 0.592686 0.104714
0.479780 0.591831 0.106850
0.620074 0.590977 0.108986
0.760369 0.590123 0.111121
0.900663 0.589269 0.113257
1.000000 0.588414 0.115393
0.053866 0.735574 0.104636
0.194160 0.734720 0.106771
0.334454 0.733866 0.108907
0.474749 0.733011 0.111043
0.615043 0.732157 0.113179
0.755337 0.731303 0.115314
0.895631 0.730449 0.117450
1.000000 0.729594 0.119586
0.048834 0.876754 0.108829
0.189129 0.875900 0.110964
0.329423 0.875046 0.113100
0.469717 0.874191 0.115236
0.610011 0.873337 0.117371
0.750306 0.872483 0.119507
0.890600 0.871629 0.121643
1.000000 0.870774 0.123779
0.043803 1.000000 0.113021
0.184097 1.000000 0.115157
0.324391 1.000000 0.117293
0.464686 1.000000 0.119429
0.604980 1.000000 0.121564
0.745274 1.000000 0.123700
0.885569 1.000000 0.125836
1.000000 1.000000 0.127971
0.078046 0.029349 0.227343
0.218340 0.028494 0.229479
0.358634 0.027640 0.231614
0.498929 0.026786 0.233750
0.639223 0.025931 0.235886
0.779517 0.025077 0.238021
0.919811 0.024223 0.240157
1.000000 0.023369 0.242293
0.073014 0.170529 0.231536
0.213309 0.169674 0.233671
0.353603 0.168820 0.235807
0.493897 0.167966 0.237943
0.634191 0.167111 0.240079
0.774486 0.166257 0.242214
0.914780 0.165403 0.244350
1.000000 0.164549 0.246486
0.067983 0.311709 0.235729
0.208277 0.310854 0.237864
0.348571 0.310000 0.240000
0.488866 0.309146 0.242136
0.629160 0.308291 0.244271
0.769454 0.307437 0.246407
0.909749 0.306583 0.248543
1.000000 0.305729 0.250679
0.062951 0.452889 0.239921
0.203246 0.452034 0.242057
0.343540 0.451180 0.244193
0.483834 0.450326 0.246329
0.624129 0.449471 0.248464
0.764423 0.448617 0.250600
0.904717 0.447763 0.252736
1.000000 0.446909 0.254871
0.057920 0.594069 0.244114
0.198214 0.593214 0.246250
0.338509 0.592360 0.248386
0.478803 0.591506 0.250521
0.619097 0.590651 0.252657
0.759391 0.589797 0.254793
0.899686 0.588943 0.256929
1.000000 0.588089 0.259064
0.052889 0.735249 0.248307
0.193183 0.734394 0.250443
0.333477 0.733540 0.252579
0.473771 0.732686 0.254714
0.614066 0.731831 0.256850
0.754360 0.730977 0.258986
0.894654 0.730123 0.261121
1.000000 0.729269 0.263257
0.047857 0.876429 0.252500
0.188151 0.875574 0.254636
0.328446 0.874720 0.256771
0.468740 0.873866 0.258907
0.609034 0.873011 0.261043
0.749329 0.872157 0.263179
0.889623 0.871303 0.265314
1.000000 0.870449 0.267450
0.042826 1.000000 0.256693
0.183120 1.000000 0.258829
0.323414 1.000000 0.260964
0.463709 1.000000 0.263100
0.604003 1.000000 0.265236
0.744297 1.000000 0.267371
0.884591 1.000000 0.269507
1.000000 1.000000 0.271643
0.077069 0.029023 0.371014
0.217363 0.028169 0.373150
0.357657 0.027314 0.375286
0.497951 0.026460 0.377421
0.638246 0.025606 0.379557
0.778540 0.024751 0.381693
0.918834 0.023897 0.383829
1.000000 0.023043 0.385964
0.072037 0.170203 0.375207
0.212331 0.169349 0.377343
0.352626 0.168494 0.379479
0.492920 0.167640 0.381614
0.633214 0.166786 0.383750
0.773509 0.165931 0.385886
0.913803 0.165077 0.388021
1.000000 0.164223 0.390157
0.067006 0.311383 0.379400
0.207300 0.310529 0.381536
0.347594 0.309674 0.383671
0.487889 0.308820 0.385807
0.628183 0.307966 0.387943
0.768477 0.307111 0.390079
0.908771 0.306257 0.392214
1.000000 0.305403 0.394350
0.061974 0.452563 0.383593
0.202269 0.451709 0.385729
0.342563 0.450854 0.387864
0.482857 0.450000 0.390000
0.623151 0.449146 0.392136
0.763446 0.448291 0.394271
0.903740 0.447437 0.396407
1.000000 0.446583 0.398543
0.056943 0.593743 0.387786
0.197237 0.592889 0.389921
0.337531 0.592034 0.392057
0.477826 0.591180 0.394193
0.618120 0.590326 0.396329
0.758414 0.589471 0.398464
0.898709 0.588617 0.400600
1.000000 0.587763 0.402736
0.051911 0.734923 0.391979
0.192206 0.734069 0.394114
0.332500 0.733214 0.396250
0.472794 0.732360 0.398386
0.613089 0.731506 0.400521
0.753383 0.730651 0.402657
0.893677 0.729797 0.404793
1.000000 0.728943 0.406929
0.046880 0.876103 0.396171
0.187174 0.875249 0.398307
0.327469 0.874394 0.400443
0.467763 0.873540 0.402579
0.608057 0.872686 0.404714
0.748351 0.871831 0.406850
0.888646 0.870977 0.408986
1.000000 0.870123 0.411121
0.041849 1.000000 0.400364
0.182143 1.000000 0.402500
0.322437 1.000000 0.404636
0.462731 1.000000 0.406771
0.603026 1.000000 0.408907
0.743320 1.000000 0.411043
0.883614 1.000000 0.413179
1.000000 1.000000 0.415314
0.076091 0.028697 0.514686
0.216386 0.027843 0.516821
0.356680 0.026989 0.518957
0.496974 0.026134 0.521093
0.637269 0.025280 0.523229
0.777563 0.024426 0.525364
0.917857 0.023571 0.527500
1.000000 0.022717 0.529636
0.071060 0.169877 0.518879
0.211354 0.169023 0.521014
0.351649 0.168169 0.523150
0.491943 0.167314 0.525286
0.632237 0.166460 0.527421
0.772531 0.165606 0.529557
0.912826 0.164751 0.531693
1.000000 0.163897 0.533829
0.066029 0.311057 0.523071
0.206323 0.310203 0.525207
0.346617 0.309349 0.527343
0.486911 0.308494 0.529479
0.627206 0.307640 0.531614
0.767500 0.306786 0.533750
0.907794 0.305931 0.535886
1.000000 0.305077 0.538021
0.060997 0.452237 0.527264
0.201291 0.451383 0.529400
0.341586 0.450529 0.531536
0.481880 0.449674 0.533671
0.622174 0.448820 0.535807
0.762469 0.447966 0.537943
0.902763 0.447111 0.540079
1.000000 0.446257 0.542214
0.055966 0.593417 0.531457
0.196260 0.592563 0.533593
0.336554 0.591709 0.535729
0.476849 0.590854 0.537864
0.617143 0.590000 0.540000
0.757437 0.589146 0.542136
0.897731 0.588291 0.544271
1.000000 0.587437 0.546407
0.050934 0.734597 0.535650
0.191229 0.733743 0.537786
0.331523 0.732889 0.539921
0.471817 0.732034 0.542057
0.612111 0.731180 0.544193
0.752406 0.730326 0.546329
0.892700 0.729471 0.548464
1.000000 0.728617 0.550600
0.045903 0.875777 0.539843
0.186197 0.874923 0.541979
0.326491 0.874069 0.544114
0.466786 0.873214 0.546250
0.607080 0.872360 0.548386
0.747374 0.871506 0.550521
0.887669 0.870651 0.552657
1.000000 0.869797 0.554793
0.040871 1.000000 0.544036
0.181166 1.000000 0.546171
0.321460 1.000000 0.548307
0.461754 1.000000 0.550443
0.602049 1.000000 0.552579
0.742343 1.000000 0.554714
0.882637 1.000000 0.556850
1.000000 1.000000 0.558986
0.075114 0.028371 0.658357
0.215409 0.027517 0.660493
0.355703 0.026663 0.662629
0.495997 0.025809 0.664764
0.636291 0.024954 0.666900
0.776586 0.024100 0.669036
0.916880 0.023246 0.671171
1.000000 0.022391 0.673307
0.070083 0.169551 0.662550
0.210377 0.168697 0.664686
0.350671 0.167843 0.666821
0.490966 0.166989 0.668957
0.631260 0.166134 0.671093
0.771554 0.165280 0.673229
0.911849 0.164426 0.675364
1.000000 0.163571 0.677500
0.065051 0.310731 0.666743
0.205346 0.309877 0.668879
0.345640 0.309023 0.671014
0.485934 0.308169 0.673150
0.626229 0.307314 0.675286
0.766523 0.306460 0.677421
0.906817 0.305606 0.679557
1.000000 0.304751 0.681693
0.060020 0.451911 0.670936
0.200314 0.451057 0.673071
0.340609 0.450203 0.675207
0.480903 0.449349 0.677343
0.621197 0.448494 0.679479
0.761491 0.447640 0.681614
0.901786 0.446786 0.683750
1.000000 0.445931 0.685886
0.054989 0.593091 0.675129
0.195283 0.592237 0.677264
0.335577 0.591383 0.679400
0.475871 0.590529 0.681536
0.616166 0.589674 0.683671
0.756460 0.588820 0.685807
0.896754 0.587966 0.687943
1.000000 0.587111 0.690079
0.049957 0.734271 0.679321
0.190251 0.733417 0.681457
0.330546 0.732563 0.683593
0.470840 0.731709 0.685729
0.611134 0.730854 0.687864
0.751429 0.730000 0.690000
0.891723 0.729146 0.692136
1.000000 0.728291 0.694271
0.044926 0.875451 0.683514
0.185220 0.874597 0.685650
0.325514 0.873743 0.687786
0.465809 0.872889 0.689921
0.606103 0.872034 0.692057
0.746397 0.871180 0.694193
0.886691 0.870326 0.696329
1.000000 0.869471 0.698464
0.039894 1.000000 0.687707
0.180189 1.000000 0.689843
0.320483 1.000000 0.691979
0.460777 1.000000 0.694114
0.601071 1.000000 0.696250
0.741366 1.000000 0.698386
0.881660 1.000000 0.700521
1.000000 1.000000 0.702657
0.074137 0.028046 0.802029
0.214431 0.027191 0.804164
0.354726 0.026337 0.806300
0.495020 0.025483 0.808436
0.635314 0.024629 0.810571
0.775609 0.023774 0.812707
0.915903 0.022920 0.814843
1.000000 0.022066 0.816979
0.069106 0.169226 0.806221
0.209400 0.168371 0.808357
0.349694 0.167517 0.810493
0.489989 0.166663 0.812629
0.630283 0.165809 0.814764
0.770577 0.164954 0.816900
0.910871 0.164100 0.819036
1.000000 0.163246 0.821171
0.064074 0.310406 0.810414
0.204369 0.309551 0.812550
0.344663 0.308697 0.814686
0.484957 0.307843 0.816821
0.625251 0.306989 0.818957
0.765546 0.306134 0.821093
0.905840 0.305280 0.823229
1.000000 0.304426 0.825364
0.059043 0.451586 0.814607
0.199337 0.450731 0.816743
0.339631 0.449877 0.818879
0.479926 0.449023 0.821014
0.620220 0.448169 0.823150
0.760514 0.447314 0.825286
0.900809 0.446460 0.827421
1.000000 0.445606 0.829557
0.054011 0.592766 0.818800
0.194306 0.591911 0.820936
0.334600 0.591057 0.823071
0.474894 0.590203 0.825207
0.615189 0.589349 0.827343
0.755483 0.588494 0.829479
0.895777 0.587640 0.831614
1.000000 0.586786 0.833750
0.048980 0.733946 0.822993
0.189274 0.733091 0.825129
0.329569 0.732237 0.827264
0.469863 0.731383 0.829400
0.610157 0.730529 0.831536
0.750451 0.729674 0.833671
0.890746 0.728820 0.835807
1.000000 0.727966 0.837943
0.043949 0.875126 0.827186
0.184243 0.874271 0.829321
0.324537 0.873417 0.831457
0.464831 0.872563 0.833593
0.605126 0.871709 0.835729
0.745420 0.870854 0.837864
0.885714 0.870000 0.840000
1.000000 0.869146 0.842136
0.038917 1.000000 0.831379
0.179211 1.000000 0.833514
0.319506 1.000000 0.835650
0.459800 1.000000 0.837786
0.600094 1.000000 0.839921
0.740389 1.000000 0.842057
0.880683 1.000000 0.844193
1.000000 1.000000 0.846329
0.073160 0.027720 0.945700
0.213454 0.026866 0.947836
0.353749 0.026011 0.949971
0.494043 0.025157 0.952107
0.634337 0.024303 0.954243
0.774631 0.023449 0.956379
0.914926 0.022594 0.958514
1.000000 0.021740 0.960650
0.068129 0.168900 0.949893
0.208423 0.168046 0.952029
0.348717 0.167191 0.954164
0.489011 0.166337 0.956300
0.629306 0.165483 0.958436
0.769600 0.164629 0.960571
0.909894 0.163774 0.962707
1.000000 0.162920 0.964843
0.063097 0.310080 0.954086
0.203391 0.309226 0.956221
0.343686 0.308371 0.958357
0.483980 0.307517 0.960493
0.624274 0.306663 0.962629
0.764569 0.305809 0.964764
0.904863 0.304954 0.966900
1.000000 0.304100 0.969036
0.058066 0.451260 0.958279
0.198360 0.450406 0.960414
0.338654 0.449551 0.962550
0.478949 0.448697 0.964686
0.619243 0.447843 0.966821
0.759537 0.446989 0.968957
0.899831 0.446134 0.971093
1.000000 0.445280 0.973229
0.053034 0.592440 0.962471
0.193329 0.591586 0.964607
0.333623 0.590731 0.966743
0.473917 0.589877 0.968879
0.614211 0.589023 0.971014
0.754506 0.588169 0.973150
0.894800 0.587314 0.975286
1.000000 0.586460 0.977421
0.048003 0.733620 0.966664
0.188297 0.732766 0.968800
0.328591 0.731911 0.970936
0.468886 0.731057 0.973071
0.609180 0.730203 0.975207
0.749474 0.729349 0.977343
0.889769 0.728494 0.979479
1.000000 0.727640 0.981614
0.042971 0.874800 0.970857
0.183266 0.873946 0.972993
0.323560 0.873091 0.975129
0.463854 0.872237 0.977264
0.604149 0.871383 0.979400
0.744443 0.870529 0.981536
0.884737 0.869674 0.983671
1.000000 0.868820 0.985807
0.037940 1.000000 0.975050
0.178234 1.000000 0.977186
0.318529 1.000000 0.979321
0.458823 1.000000 0.981457
0.599117 1.000000 0.983593
0.739411 1.000000 0.985729
0.879706 1.000000 0.987864
1.000000 1.000000 0.990000
